Patriotic Administration Center/Autocannon.svg

<svg id="HD2-AC" xmlns="http://www.w3.org/2000/svg" xmlns:xlink="http://www.w3.org/1999/xlink" viewBox="0 0 126 126">
  <defs>
    <style>
      .cls-1 {
        fill: #49adc9;
      }

      .cls-1, .cls-2 {
        fill-rule: evenodd;
      }

      .cls-2 {
        fill: #fff;
      }
    </style>
  </defs>
  <g id="HD2-AC-2" data-name="HD2-AC">
    <path class="cls-1" d="M27,82V75H46v7H95v2h7V82h2s3,1.331,3,3h10V84h4v6h-4V89H107s-1.062,3-3,3h-2V90H95v2H89l-2,2H78s0.23,1.607-2,4H74V94H60v3H58s-2.962,4.507-3,9a7.308,7.308,0,0,1-5-3s0.593-4.247,3-6V94H46a19.058,19.058,0,0,1-12,9s1.245-10.406-10-11c-5.4-.285-8,5-8,5H14V96H6V90s-2,.288-2-3a6.225,6.225,0,0,1,3-5H27Z"/>
    <path class="cls-2" d="M34,33H70L48,55H34V33Zm42,0L54,55H87s11-.551,11-11S87,33,87,33H76Z"/>
  </g>
</svg>

<svg xmlns="http://www.w3.org/2000/svg" viewBox="0 0 126 126">
<path d="M27 82v-7h19v7h49v2h7v-2h2s3 1.3 3 3h10v-1h4v6h-4v-1h-10s-1 3-3 3h-2v-2h-7v2h-6l-2 2h-9s.2 1.6-2 4h-2v-4H60v3h-2s-3 4.5-3 9a7.3 7.3 0 0 1-5-3s.6-4.2 3-6v-3h-7a19 19 0 0 1-12 9s1.2-10.4-10-11c-5.4-.3-8 5-8 5h-2v-1H6v-6s-2 .3-2-3a6.2 6.2 0 0 1 3-5h20Z" style="fill-rule:evenodd;fill:#49adc9"/>
<path d="M34 33h36L48 55H34V33Zm42 0L54 55h33s11-.6 11-11-11-11-11-11H76Z" style="fill:#fff;fill-rule:evenodd"/>
</svg>
